assets/file.svg

<svg version="1.1" id="Layer_1" xmlns="http://www.w3.org/2000/svg" xmlns:xlink="http://www.w3.org/1999/xlink" x="0px" y="0px"
	 width="100%" viewBox="0 0 432 448" enable-background="new 0 0 432 448" xml:space="preserve">
<path fill="#000000" opacity="1.000000" stroke="none" 
	d="
M191.334076,431.107117 
	C164.644333,426.890900 139.952957,418.431274 117.209358,404.523712 
	C69.047394,375.072998 37.744942,332.880951 24.904568,278.095978 
	C-0.217973,170.907654 61.662289,66.330681 165.525513,36.187885 
	C187.858261,29.706560 210.727036,27.581905 234.085052,29.491007 
	C297.287842,34.656715 347.630035,62.450245 384.928528,113.774925 
	C385.905182,115.118851 386.777924,116.545341 387.604980,117.987312 
	C387.911224,118.521225 387.945984,119.210846 388.095703,119.794815 
	C386.651672,121.700150 384.542480,121.804413 382.696869,122.358910 
	C358.649353,129.583694 334.584747,136.751770 310.537140,143.976334 
	C301.757660,146.613937 300.346466,148.591812 300.344574,157.926971 
	C300.334595,206.758713 300.335388,255.590439 300.332428,304.422180 
	C300.332306,306.391846 300.332397,308.361511 300.332397,310.251373 
	C297.588837,311.295135 295.709045,309.753693 293.659546,309.526306 
	C270.425293,306.948486 243.370651,321.000549 235.432968,345.798615 
	C230.876328,360.033997 237.213165,372.325439 251.395630,377.194244 
	C267.449432,382.705475 282.369568,378.818878 296.149811,370.215881 
	C307.536194,363.107361 316.830963,353.884583 320.092896,340.146210 
	C320.622131,337.917175 320.627960,335.529236 320.629364,333.214600 
	C320.658997,284.216187 320.733002,235.217453 320.535706,186.219833 
	C320.515137,181.109909 322.177582,179.024734 327.002197,177.630478 
	C352.083191,170.382584 377.079529,162.838165 402.050446,155.217056 
	C405.635406,154.122910 407.254883,154.561218 408.652588,158.346237 
	C416.074097,178.444443 420.735931,199.040405 421.393158,220.524719 
	C424.088257,308.625397 384.629974,372.043182 307.831451,412.987427 
	C285.171844,425.068054 260.311218,430.594818 234.589920,432.561737 
	C220.184814,433.663269 206.014908,432.480560 191.334076,431.107117 
M248.201462,284.689911 
	C268.238892,273.443268 280.382874,256.592651 281.479004,233.511841 
	C283.413971,192.769730 248.170090,162.094559 208.127411,169.466614 
	C177.448853,175.114655 152.180984,203.908127 158.920227,241.458817 
	C166.300888,282.583557 209.967239,303.433716 248.201462,284.689911 
z"/>
<path fill="#000000" opacity="1.000000" stroke="none" 
	d="
M201.761566,216.897308 
	C209.930405,207.091202 220.919632,204.697250 231.482071,210.162872 
	C240.663666,214.913971 245.502426,226.031113 242.720093,235.982544 
	C239.636292,247.012222 229.885880,254.188354 218.413483,253.248672 
	C209.956070,252.555939 203.185303,248.576691 199.392090,240.665451 
	C195.470947,232.487442 196.189743,224.594757 201.761566,216.897308 
z"/>
</svg>

<svg xmlns="http://www.w3.org/2000/svg" viewBox="0 0 432 448" xml:space="preserve"><path d="M191.334 431.107c-26.69-4.216-51.381-12.676-74.125-26.583-48.162-29.451-79.464-71.643-92.304-126.428C-.218 170.908 61.662 66.331 165.525 36.188c22.333-6.481 45.202-8.606 68.56-6.697 63.203 5.166 113.545 32.96 150.844 84.284.976 1.344 1.849 2.77 2.676 4.212.306.534.341 1.224.49 1.808-1.443 1.905-3.553 2.01-5.398 2.564-24.048 7.225-48.112 14.393-72.16 21.617-8.78 2.638-10.19 4.616-10.192 13.951-.01 48.832-.01 97.663-.013 146.495v5.83c-2.743 1.043-4.623-.498-6.672-.726-23.235-2.578-50.29 11.475-58.227 36.273-4.557 14.235 1.78 26.526 15.963 31.395 16.053 5.511 30.974 1.625 44.754-6.978 11.386-7.109 20.681-16.331 23.943-30.07.53-2.229.535-4.617.536-6.931.03-48.999.104-97.998-.093-146.995-.02-5.11 1.642-7.195 6.466-8.59 25.081-7.247 50.078-14.792 75.048-22.413 3.585-1.094 5.205-.656 6.603 3.13 7.421 20.097 12.083 40.693 12.74 62.178 2.695 88.1-36.763 151.518-113.562 192.462-22.66 12.081-47.52 17.608-73.241 19.575-14.405 1.101-28.575-.081-43.256-1.455m56.867-146.417c20.038-11.247 32.182-28.097 33.278-51.178 1.935-40.742-33.309-71.417-73.352-64.045-30.678 5.648-55.946 34.441-49.207 71.992 7.38 41.125 51.047 61.975 89.281 43.23"/><path d="M201.762 216.897c8.168-9.806 19.158-12.2 29.72-6.734 9.182 4.751 14.02 15.868 11.238 25.82-3.084 11.03-12.834 18.205-24.307 17.266-8.457-.693-15.228-4.672-19.02-12.584-3.922-8.178-3.203-16.07 2.369-23.768"/></svg>
